!!!!SEGMENT: pl-wtm--a-27-701_kranowski-igo--bajka-noc-szara-smutna-jak-lza.krn
!!!cenid: 19xx:24
!!!COM: Kranowski, Igo
!!!COM-rismID: pe50054969
!!!CDT: 1912-1943
!!!CNT: Polish
!!!OTL: Bajka/Noc szara smutna jak łza
!!!PDT: 1933
!!!AGN: Secular
!!!YEC: Copyright 2022 Narodowy Instytut Fryderyka Chopina (https://polishscores.org)
!!!YEM: License CC-BY-4.0 (https://creativecommons.org/licenses/by/4.0)
!!!SMS-siglum: PL-Wtm
!!!SMS-shelfmark: A.27.701
!!!SMS-variant:
!!!SMS-altvar:
!!!SMS-shelfwork: W
!!!NIFC-rismSourceID: 1001220637
!!!NIFC-rismChildID: 1001220637
!!!NIFC-islandoraID: pl-wtm:95473
!!!URL-pdf-islandora: https://repozytorium.nifc.pl/islandora/object/pl-wtm%3A95473/datastream/PDF/view
!!!URL-scan: https://polish.musicsources.pl/pl/lokalizacje/galeria/druki-muzyczne/20365/2 @EN{Scan on Polish Music Sources Website} @PL{Skany w portalu Dziedzictwo Muzyki Polskiej w otwartym dostępie}
!!!IIIF:
!!!ONB-nifc:
!!!AIN: 2 piano 1 vox
!!!key: a
**kern	**kern	**kern	**text
*part3	*part2	*part1	*part1
*staff3	*staff2	*staff1	*staff1
*I"[Piano]	*I"[Piano]	*I"[Voce]	*
*I'[pf]	*I'[pf]	*I'[V]	*
*ICklav	*ICklav	*ICvox	*
*Ipiano	*Ipiano	*Ivox	*
*clefF4	*clefG2	*clefG2	*
*k[]	*k[]	*k[]	*
*a:	*a:	*a:	*
*M2/4	*M2/4	*M2/4	*
=1	=1	=1	=1
*	*^	*	*
8AAA\L 8CC 8EE 8AA	2E</ [2e	8A\L 8c	[2e/	Noc
8AAA\ 8CC 8EE 8AA	.	8A\ 8c	.	.
8AAA\ 8CC 8EE 8AA	.	8A\ 8c	.	.
8AAA\J 8CC 8EE 8AA	.	8A\J 8c	.	.
*	*v	*v	*	*
=2	=2	=2	=2
8AAA\L 8CC 8EE 8AA	8E</L 8e]	8e/L]	.
8AAA\ 8CC 8EE 8AA	16D#X</L 16d#X	16d#X/L	sza-
.	16E</JJ 16e	16e/JJ	-ra
8AAA\ 8CC 8EE 8AA	16A</KL 16a	16a/KL	smut-
.	8B</ 8b	8b/	-na
8AAA\J 8CC 8EE 8AA	.	.	.
.	16A</Jk 16a	16a/Jk	jak
=3	=3	=3	=3
*	*^	*	*
8AAA\L 8CC 8EE 8AA	[>2E</ [2e	8r	[>2e/	łza,
8AAA\ 8CC 8EE 8AA	.	8A\L 8c	.	.
8AAA\ 8CC 8EE 8AA	.	8A\ 8c	.	.
8AAA\J 8CC 8EE 8AA	.	8A\J 8c	.	.
=4	=4	=4	=4	=4
*	*	*Xtuplet	*	*
8AAA\L 8CC 8EE 8AA	2E</] 2e]	12A\L 12c	2e/]	.
.	.	12A\ 12c	.	.
8AAA\ 8CC 8EE 8AA	.	.	.	.
.	.	12A\J 12c	.	.
8AAA\ 8CC 8EE 8AA	.	8A\L 8c	.	.
8AAA\J 8CC 8EE 8AA	.	8A\J 8c	.	.
=5	=5	=5	=5	=5
8AAA\L 8CC 8EE 8AA	2E</ 2e	12A\L 12c	[<2e/	Noc
.	.	12A\ 12c	.	.
8AAA\ 8CC 8EE 8AA	.	.	.	.
.	.	12A\J 12c	.	.
8AAA\ 8CC 8EE 8AA	.	8A\L 8c	.	.
8AAA\J 8CC 8EE 8AA	.	8A\J 8c	.	.
*	*v	*v	*	*
=6	=6	=6	=6
8AAA\L 8CC 8EE 8AA	8E</L 8e	8e/L]	.
8AAA\ 8CC 8EE 8AA	16D#X</L 16d#X	16d#X/L	ta-
.	16E</JJ 16e	16e/JJ	-ka
8AAA\ 8CC 8EE 8AA	16B</KL 16b	16b/KL	przez
.	8c</ 8cc	8cc/	wie-
8AAA\J 8CC 8EE 8AA	.	.	.
.	16B</Jk 16b	16b/Jk	-ki
!!LO:LB:g=original	!	!	!
=7	=7	=7	=7
*	*^	*	*
8EE\L 8E	2B/ 2b	16r	[2b\	trwa
.	.	8e\L 8g#X	.	.
8EE\ 8E	.	.	.	.
.	.	16e\Jk 16g#	.	.
8EE\ 8E	.	8e\L 8g#	.	.
8EE\J 8E	.	8e\J 8g#	.	.
=8	=8	=8	=8	=8
8EE\L 8E	2B/ 2b	16e\KL 16g#X	2b/]	.
.	.	8g#\	.	.
8EE\ 8E	.	.	.	.
.	.	16e\Jk 16g#	.	.
8EE\ 8E	.	8e\L 8g#	.	.
8EE\J 8E	.	8e\J 8g#	.	.
=9	=9	=9	=9	=9
.	16qqa/LL	.	.	.
.	16qqb/	.	.	.
.	16qqcc#X/JJ	.	.	.
8DD\L 8D	[2dd/	16f\KL 16a	[2dd\	tli
.	.	8f\ 8a	.	.
8F\ 8A 8B	.	.	.	.
.	.	16f\Jk 16a	.	.
8F\ 8A 8B 8d	.	8f\L 8a	.	.
8D\J 8F 8A 8B	.	8f\J 8a	.	.
*	*v	*v	*	*
=10	=10	=10	=10
8DD\L 8D	8f\L 8a 8dd]	8dd\L]	.
8D\ 8F 8B	8f\ 8a 8cc	8cc\	u-
8D\ 8F 8B	8d\ 8f 8b	8b\	-po-
8DD#X\J 8D#X	8c\J 8f 8a	8a\J	-jeń
=11	=11	=11	=11
*	*^	*	*
8EE\L 8E	[2g#X/	8B\L 8e	[>2g#X/	żar
8E\ 8G#X	.	8B\J 8e	.	.
8E\ 8G# 8B	.	16d\KL 16e	.	.
.	.	8d\ 8f	.	.
8BBB\J 8BB	.	.	.	.
.	.	16d\Jk 16e	.	.
=12	=12	=12	=12	=12
8EE\L 8E	2g#X/]	16d\KL 16f	2g#X/]	.
.	.	8d\ 8f	.	.
8E\ 8G#X	.	.	.	.
.	.	16d\Jk 16e	.	.
8E\ 8G# 8B	.	8d\L 8f	.	.
8E\J 8G#	.	8d\J 8e	.	.
!!LO:LB:g=original	!	!	!	!
=13	=13	=13	=13	=13
!	!	!	!	!
.	16qqa\LL	.	.	.
.	16qqb\	.	.	.
.	16qqcc#X\JJ	.	.	.
8DD\L 8D	[2dd/	16f\KL 16a	[2dd\	złu-
.	.	8f\ 8a	.	.
8D\ 8F 8A	.	.	.	.
.	.	16f\Jk 16a	.	.
8F\ 8A 8d	.	8f\L 8b	.	.
8D\J 8F 8A	.	8f\J 8a	.	.
*	*v	*v	*	*
=14	=14	=14	=14
8DD\L 8D	8f\L 8a 8dd]	8dd\L]	.
8F\ 8A 8d	8f\ 8a 8cc	8cc\	-dzeń
8DD\ 8D	8f\ 8b	8b\	sen-
8DD#X\J 8D#X	8f#X\J 8a	8a\J	-nych
=15	=15	=15	=15
*	*^	*	*
8EE\L 8E	[2ee/	16e\KL 16g#X 16b	[2ee\	czar
.	.	8e\ 8g# 8b	.	.
8BB\ 8E 8G#X	.	.	.	.
.	.	16e\Jk 16g# 16b	.	.
8E\ 8G# 8B	.	8f\L 8g# 8b	.	.
8BBB\J 8BB	.	8e\J 8g# 8b	.	.
=16	=16	=16	=16	=16
8EE\L 8E	2ee/]	16f\KL 16g#X 16b	2ee\]	.
.	.	8f\ 8g# 8b	.	.
8BB\ 8E 8G#X	.	.	.	.
.	.	16e\Jk 16g# 16b	.	.
8E\ 8G# 8B	.	8f\L 8g# 8b	.	.
8EE\J 8BB	.	8e\J 8g# 8b	.	.
*	*v	*v	*	*
=17	=17	=17	=17
8DD\L 8D	16a\KL 16ff	16ff\KL	Noc
.	8f\ 8dd	8dd\	ta-
8D\ 8F 8A	.	.	.
.	16a\Jk 16ee	16ee\Jk	-ką
8F\ 8A 8d	4dd\ 4ff	[4ff\	w ży-
8AAA\J 8AA	.	.	.
=18	=18	=18	=18
8DD\L 8D	8dd\L 8ff	8ff\L]	.
8D\ 8F 8A	8ff\ 8aa	8aa\	-ciu
8F\ 8A 8d	8ee\ 8gg	8gg\	mia-
8FF\J 8F	8dd\J 8ff	8ff\J	-łem
!!LO:LB:g=original	!	!	!
=19	=19	=19	=19
8EE\L 8E	16cc\KL 16ee	16cc\KL 16ee	raz
.	8a\ 8cc	8a\ 8cc	tyl-
8C\ 8E 8A	.	.	.
.	16b\Jk 16dd	16b\Jk 16dd	-ko
8E\ 8A 8c	[4cc\ [4ee	[4ee\	ko-
8EE\J 8E	.	.	.
=20	=20	=20	=20
8AAA\L 8AA	8cc\L] 8ee]	8ee\L]	.
8E\ 8A 8c	(8cc\ 8ee 8aa	8aa\	-chać
8A\ 8c 8e	8cc\ 8ee	8ee\	chcia-
8EE\J 8E	8a\J) 8cc	8cc\J	-łem
=21	=21	=21	=21
8EE\L 8E	16b\KL 16dd	16dd\KL	wspo-
.	8g#X\ 8b	8b\	-mnie-
8E\ 8G#X 8c	.	.	.
.	16a\Jk 16cc	16cc\Jk	-nia
8G#\ 8d 8e	[4b\ [4dd	[4dd\	te
8E\J 8G# 8d	.	.	.
=22	=22	=22	=22
8EE\L 8E	8b\L] 8dd]	8dd\L]	.
8E\ 8G#X 8d	8g\ 8b#X 8ee	8ee\	ja
8E\ 8B 8d	8e\ 8g 8cc	8cc\	To-
8EE\J 8E	8d\J 8g 8b#	8b\J	-bie
=23	=23	=23	=23
8AA\L 8E 8A	(16c\KL 16e 16a	[4a\	ślę
.	8c\ 8e	.	.
8AA\J 8E 8A	.	.	.
.	16c\Jk 16f	.	.
8FFn\L 8Fn	16d#X\KL) 16a	16a\KL]	.
.	8g#X\	8g#X\	mój
8FF\J 8F	.	.	.
.	16a\Jk	16a\Jk	Ty
=24	=24	=24	=24
16EE\KL 16E	2dn/ 2g#X 2b	2b\	śnie
8EE\ 8E	.	.	.
16FF\Jk 16F	.	.	.
16EE\LL 16E	.	.	.
16DD\ 16D	.	.	.
16CC\ 16C	.	.	.
16BBB\JJ 16BB	.	.	.
!!LO:PB:g=original	!	!	!
=25!|:	=25!|:	=25!|:	=25!|:
*	*^	*	*
8AAA\L 8AA	4cc/	16r	4cc\	Baj-
.	.	16d#X\LL	.	.
8C\ 8E 8A	.	16e\	.	.
.	.	16g#X\JJ	.	.
8E\ 8A 8c	[4a/	8r	[4a\	-ką
8EE\J 8E	.	16B\LL	.	.
.	.	16c\JJ	.	.
=26	=26	=26	=26	=26
8AAA\L 8AA	8A/L 8c 8a]	8ryy	8a\L]	.
8E\J 8c	16a#X/L	8r	16a#X\L	by-
.	16b/JJ	.	16b\JJ	-łaś
8DD\L 8D	8.dd/L	8d\L 8f 8a#	16dd\KL	dla
.	.	.	8.cc\J	mnie
8DD#X\J 8D#X	.	8d#X\J 8f#X	.	.
.	16cc/Jk	.	.	.
=27	=27	=27	=27	=27
8EE\L 8E	[<2b/	8r	[>2b/	Ty,
8E\ 8G#X 8B	.	8gg#X/ 8bb	.	.
8G#\ 8B 8e	.	8gg#/L 8bb	.	.
8BBB\J 8BB	.	16ff##X/L 16aa#X	.	.
.	.	16ff##/JJ 16aa#	.	.
=28	=28	=28	=28	=28
8EE\L 8E	4.b\]	16bb/KL 16ddd	4.b\]	.
.	.	8aa#X/ 8ccc#X	.	.
8E\ 8G#X 8B	.	.	.	.
.	.	16aan/Jk 16cccn	.	.
8G#\ 8B 8e	.	8gg#X/ 8bb	.	.
8EE\J 8E	8b\	8reee	8e/	nie
=29	=29	=29	=29	=29
8AAA\L 8AA	4cc/	16r	4cc/	wró-
.	.	16d#X\LL	.	.
8C\ 8E 8A	.	16e\	.	.
.	.	16g#X\JJ	.	.
8E\ 8A 8c	[4a/	8r	[4a/	-cą
8C\J 8E 8A	.	16B\LL	.	.
.	.	16c\JJ	.	.
=30	=30	=30	=30	=30
8AAA\L 8AA	8a/L]	4A\ 4c	8a/L]	.
8C\J 8E 8A	16a#X/L	.	16a#X/L	na-
.	16b/JJ	.	16b/JJ	-sze
8GGG\L 8GG	8.dd/L	4r	8.dd/L	daw-
8F\J 8G 8B 8d	.	.	.	.
.	16cc/Jk	.	16cc/Jk	-ne
!!LO:LB:g=original	!	!	!	!
=31	=31	=31	=31	=31
*	*^	*	*	*
8CC\L 8C	[<2g\ [<2cc	[<2ee/	8ryy	[>2ee/	sny,
8E\ 8G 8c	.	.	8ee/ 8gg	.	.
8G\ 8c 8e	.	.	16ee/KL 16gg	.	.
.	.	.	8dd#X/ 8ff#X	.	.
8E\J 8G 8c	.	.	.	.	.
.	.	.	16ee/Jk 16gg	.	.
*	*v	*v	*	*	*
=32	=32	=32	=32	=32
8CC\L 8C	2g\] 2cc] 2ee]	8ffn/L 8aa	2ee/]	.
8E\ 8G 8c	.	16ee/L 16gg	.	.
.	.	16dd/JJ 16ff	.	.
8G\ 8A 8e	.	4cc/ 4ee	.	.
8A\J 8c	.	.	.	.
*	*v	*v	*	*
=33	=33	=33	=33
8DD\L 8D	4a\ 4dd 4ff	4ff\	mi-
8D\ 8F 8A	.	.	.
8F\ 8A 8d	[4f\ [4a [4dd	[4dd\	-łość
8D\J 8F 8A	.	.	.
=34	=34	=34	=34
8DD\L 8D	8f\L] 8a] 8dd]	8dd\L]	.
8D\ 8F 8A	8a\ 8ee	8ee\	to
8F\ 8A 8d	8dd\ 8ff	8ff\	u-
8D\J 8F 8A	8ff\J 8aa	8aa\J	-ko-
=35	=35	=35	=35
8CC\L 8C	4cc\ 4ee	4ee\	-je-
8E\ 8A 8c	.	.	.
8A\ 8c 8e	[4a\ [4cc	[4cc\	-nie,
8E\J 8A 8c	.	.	.
=36	=36	=36	=36
8AAA\L 8AA	8a\L] 8cc]	8cc\L]	.
8E\ 8A 8c	8b\ 8dd	8dd\	To
8A\ 8c 8e	8cc\ 8ee	8ee\	u-
8EE\J 8E	8ee\J 8aa	8aa\J	-ro-
!!LO:LB:g=original	!	!	!
=37	=37	=37	=37
8EE\L 8E	4b\ 4dd	4dd\	-je-
8E\ 8G#X 8d	.	.	.
8E\ 8G# 8d	[>4g#X\ [4b	[4b\	-nie
8E\J 8G# 8B	.	.	.
=38	=38	=38	=38
8EE\L 8E	8g#\L] 8b]	8b\L]	.
8E\ 8G#X 8B	8b\ 8dd	8dd\	i
8E\ 8G# 8B 8d	8.dd\ 8.ff	8.ff\	gorz-
8EE\J 8E	.	.	.
.	16cc\Jk 16ee	16ee\Jk	-kie
=39	=39	=39	=39
*	*^	*	*
8AAA\L 8AA	2cc\ 2ee	8r	[2ee\	łzy.
8E\ 8A 8c	.	(>8a\L	.	.
8A\ 8c 8e	.	8b\	.	.
8E\J 8A 8c	.	8cc\J	.	.
=40	=40	=40	=40	=40
8AAA\L 8AA	2cc\ 2ee	16b\KL)	4.ee\]	.
.	.	8a\	.	.
8E\ 8A 8c	.	.	.	.
.	.	16cc\Jk	.	.
8A\ 8c 8e	.	8b\L	.	.
8E\J 8A 8c	.	8a\J	8ee\	Jak
*	*v	*v	*	*
=41	=41	=41	=41
8DD\L 8D	4a\ 4dd 4ff	4ff\	w baj-
8D\ 8F 8A	.	.	.
8F\ 8A 8d	[4f\ [<4a [4dd	[4dd\	-ce
8D\J 8F 8A	.	.	.
=42	=42	=42	=42
8DD\L 8D	8f\L] 8a] 8dd]	8dd\L]	.
8D\ 8F 8A	8a\ 8ee	8ee\	w cza-
8F\ 8A 8d	8dd\ 8ff	8ff\	-ro-
8D\J 8F 8A	8ee\J 8gg	8aa\J	-wnej
!!LO:LB:g=original	!	!	!
=43	=43	=43	=43
8CC\L 8C	4cc\ 4ee	4ee\	baj-
8E\ 8A 8c	.	.	.
8A\ 8c 8e	[>4a\ [4cc	[4cc\	-ce
8E\J 8A 8c	.	.	.
=44	=44	=44	=44
8AAA\L 8AA	8a\L] 8cc]	8cc\L]	.
8E\ 8A 8c	8b\ 8dd	8dd\	tą
8A\ 8c 8e	8cc\ 8ee	8ee\	baj-
8E\J 8A 8c	8cc\J 8aa	8aa\J	-ką
=45	=45	=45	=45
8EE\L 8E	4b\ 4dd	4dd\	jes-
8E\ 8G#X 8d	.	.	.
8E\ 8G# 8B 8d	[4g#X\ [4b	[4b\	-teś
8E\J 8G# 8B	.	.	.
=46	=46	=46	=46
8EE\L 8E	8g#\L] 8b]	8b\L]	.
8E\ 8G#X 8B	8b\J 8dd	8dd\J	ach
8E\ 8G# 8d	8.a\L 8.cc	8.cc\L	tyl-
8EE\J 8E	.	.	.
.	16e\Jk 16g#X 16b	16b\Jk	-ko
=47	=47	=47	=47
8AA\ 8A	8c/ 8e 8a	[2a/	Ty.
16D#X\LL	16d#X/LL	.	.
16E\JJ	16e/JJ	.	.
16F\LL	16f/LL	.	.
16E\	16e/	.	.
16C\	16c/	.	.
16BB\JJ	16B/JJ	.	.
=48	=48	=48	=48
8AA/	8A/	4a/]	.
8EE/L 8E	8B/L 8d 8e	.	.
8AAA/J 8AA	8c/J 8e 8a	4r	.
8r	8r	.	.
=:|!	=:|!	=:|!	=:|!
*-	*-	*-	*-
!!!system-decoration: s1{(s2,s3)}
!!!RDF**kern: > = above
!!!RDF**kern: < = below
!!!ENC: Berenika Jozajtis
!!!END: 2023-08-24
!!!ENC: Jan Barakat
!!!END: 2023-09-19
